X:1
T:ສວັນສລາຍ
T:ເນື້ອຮ້ອງ & ທຳນອງ : ພົມມະ ພິມມະສອນ ນັກຮ້ອງຕົ້ນສະບັບ : ພົມມະ ພິມມະສອນ ຮ້ອງປະສານສຽງໂດຍ : ນິດ ວິຈິຕວົງ ແລະ ພົງສວັນ ສ. ຜາບມີໄຊ
T:1968
T:© studiodavong
C:Phomma PHIMMASONE
Z:© studiodavong
%%score ( 1 2 3 )
L:1/8
Q:1/4=65
M:3/4
K:Bb
V:1 treble nm="Piano" snm="Pno."
V:2 treble 
V:3 treble 
V:1
"^Slow Waltz" z2"_(Intro) ____________________________________________________________________________" z [Bd] [FB][EG] || %1
w: |
"D" [DF]3 [Gc] [EA][DF] |"Cm" [CE]3 [CE] [DF][EG] |"F" [FA]3 [CE] [A,C][F,A,] |"Bb" [B,DF]6 || %5
w: ||||
"F""^A" z2 z F =EG |"Bb" F3 B, B,{F}D |"Eb" G3 D FD |"Bb" B,6 |"G7" =B,2 z{C} D CD | %10
w: ອັນ ຄວາມ ຮັກ|ໃດ ຈະ ໃຫຍ່ ຍິ່ງ|ໜັກ ເກີນ ຮັກ ຂອງ|ເຮົາ|_ ເໜືອ ຄວາມ ຮັກ|
"Cm" C3{F} G ED |"F" C3 D ED |"Bb"{/D} F6- | F2 z{B} F Bc |"Bb" d3{d} F Bd |"Dm7" c3{c} A cA | %16
w: ເຮົາ ເໜືອ ໃຈ ຂອງ|ເຮົາ ຈະ ມີ ຢູ່|ໃສ|_ ເມື່ອ ຍາມ ເຮົາ|ສອງ ຮ່ວມ ຄອງ ສາ|ບານ ຮ່ວມ ສັນ ຍາ|
"Eb" G6- |"Cm" G2 z G AB |"F" F3{G} A GA |"Eb" G3 A Bd |"C7" c6 |:"F""^B" (f2 z) F =EG | %22
w: ໃຈ|_ ສຸກ ໃດ ຊື່ນ|ໃດ ຫອມ ໃດ ຫວານ|ໃດ ຈະ ທຽມ ທຽບ|ທັນ...|* ອ້າຍ ບອກ ຮັກ|
"Bb" F3 B, DF |"Eb" G3 D FD |"Bb"{/D} B,6 |"G7" =B,2 z D CD |"Cm" C3{F} G ED |"F"{F} C3 A, B,D | %28
w: ນ້ອງ ນ້ອງ ຕອບ ຮັກ|ອ້າຍ ໃຈ ຮັກ ລອຍ|ລິ່ວ|_ ສອງ ໃຈ ພັດ|ປິວ ສອງ ໃຈ ລອຍ|ລິ່ວ ສູ່ ສວງ ສ|
"Bb"{/D} F6- | F2 z F Bc |"Bb" d3 F Bd |"Dm7" c3 A cA |"Eb" G6- |"Cm" G2 z A GF |"F" A3 A GF | %35
w: ວັນ|_ ລືມ ຄວາມ ໝົ່ນ|ໝອງ ລືມ ຄວາມ ທຸກ|ຕຣົມ ຂອງ ໂລກ ສິ້ນ|ພລັນ|_ ເໝືອນ ໃນ ຍາມ|ນັ້ນ ໂລກ ເປັນ ສ|
"Eb" G3 c B{A}c |"Bb" B6 ||"^C" z2 z{c} d dB |"F" c3 B{B} DF |"Eb" G3{B} G AB |"Bb"{/B} F6 | %41
w: ວັນ ຂອງ ເຮົາ ສອງ|ຄົນ...|ນ້ອງ ໃຫ້ ແຮງ|ໃຈ ອ້າຍ ມຸ່ງ ແຮງ|ຫວັງ ຕັ້ງ ມາ ນະ|ສູ້|
"G7" D2 z{B} G AB |"Cm"{B} E3 A GF |"F" C3{C} E D{C}E |"Bb" D6- |"Dm" D2 z C B,A, | %46
w: _ ເພື່ອ ຊີ ວິດ|ຄູ່ ເພື່ອ ຄວາມ ເປັນ|ຢູ່ ຂອງ ເຮົາ ສອງ|ຄົນ|_ ໂອ້ ທາງ ສ|
"Gm" B,3{F} D EF |"Cm" E3{G} F GE |"Eb"{/F} G6- |"Cm" G2 z{G} C EG |"F" F3 F AG |"Eb" G3 A Bd | %52
w: ວັນ ທີ່ ເຮົາ ຮ່ວມ|ກັນ ວາດ ໄວ້ ໃຫຍ່|ລົ້ນ|_ ຕ້ອງ ມາ ມືດ|ມົນ ສັບ ສົນ ວົນ|ວຽນ ໃຜ ປ່ຽນ ຫົວ|
"C7" c6 ||"F""^D" (f2 z) F =EG |"Bb" F3 B, DF |"Eb" G3{F} D GF |"Bb"{/F} B,6 |"G7" =B,2 z D CD | %58
w: ໃຈ...|* ໃຜ ຜິດ ສັນ|ຍາ ຜິດ ຄຳ ວ່າ|ຮັກ ວ່າ ຮັກ ໜຽວ|ໝັ້ນ|_ ຮັກ ດຽວ ຊົ່ວ|
"Cm" C3 G ED |"F" C3 A, B,D |"Bb"{/D} F6- | F2 z{B} F Bc |"Bb" d3 F Bd |"Dm7" c3 A cA |"Eb" G6- | %65
w: ກາລ ຊົ່ວ ດວງ ຊີ|ວັນ ຈະ ແຫຼກ ສ|ລາຍ|_ ຜູ່ ໃດ ກັນ|ໜໍ ທີ່ ລືມ ນໍ້າ|ຄຳ ລືມ ສັນ ຍາ|ໃຈ|
"Cm" G2 z A G{G}F |"F" A3 F GA |"Eb" G3 c BA |"Bb" B6 :| %69
w: _ ທີ່ ເຄີຍ ວ່າ|ໄວ້ ຈະ ເປັນ ໂສ້|ໃຈ ຂອງ ກັນ ແລະ|ກັນ...|
O"Gb""_(Coda) ______________________________________________________""^E" (GA G2 A) z | %70
w: |
"Bbmaj7" (A/B/A/G/ A/G/F/G/) D2- | !fermata!D6!fine! |] %72
w: ||
V:2
 x6 || x6 | x6 | x6 | x6 || x6 | x6 | x6 | z2 (D E2 D/C/) | x6 | x6 | x6 | x6 | x6 | (B6 | A6 | %16
 G6) | x6 | x6 | x6 | z3 (d e=e) |: x6 | x6 | x6 | z2 (D E2 D/C/) | x6 | x6 | x6 | x6 | x6 | (B6 | %31
 A6 | G6) | x6 | x6 | x6 | x6 || x6 | x6 | x6 | z4 (D/E/D/E/) | x6 | x6 | x6 | x6 | x6 | x6 | x6 | %48
 x6 | x6 | x6 | x6 | z3 (d e=e) || x6 | x6 | x6 | z2 (D E2 D/C/) | x6 | x6 | x6 | x6 | x6 | (B6 | %63
 A6 | G6) | x6 | x6 | x6 | B6 :| x6 | x6 | x6 |] %72
V:3
 x6 || x6 | x6 | x6 | x6 || x6 | x6 | x6 | x6 | x6 | x6 | x6 | x6 | x6 | x6 | x6 | x6 | x6 | x6 | %19
 x6 | x6 |: x6 | x6 | x6 | x6 | x6 | x6 | x6 | x6 | x6 | x6 | x6 | x6 | x6 | x6 | x6 | x6 || x6 | %38
 x6 | x6 | x6 | x6 | x6 | x6 | x6 | x6 | x6 | x6 | x6 | x6 | x6 | x6 | x6 || x6 | x6 | x6 | x6 | %57
 x6 | x6 | x6 | x6 | x6 | x6 | x6 | x6 | x6 | x6 | x6 | x (c B2 c"_(Solo verse B)"B) :| x6 | x6 | %71
 x6 |] %72

